%
(1001)
(T1  D=6 CR=0 - ZMIN=-19 - flat end mill)
G90 G94
G17
G21
G28 G91 Z0
G90

(2D Contour6)
M9
T1 M6
S24000 M3
G54
M9
G0 X860.6 Y867.2
Z22
Z8
G1 Z5.8 F30
Z-4.2
G19 G3 Y867.8 Z-4.8 J0.6
G1 Y868.4 F1440
G17 G3 X860 Y869 I-0.6
G1 X0
G2 X-3 Y872 J3
G1 Y1297.85
G2 X0 Y1300.85 I3
G1 X860
G2 X863 Y1297.85 J-3
G1 Y872
G2 X860 Y869 I-3
G3 X859.4 Y868.4 J-0.6
G1 Y867.8
G19 G2 Y867.2 Z-4.2 K0.6
G0 Z9
X863.87 Y866.902
Z8
G1 Z5.8 F30
Z-4.2
X863.863 Y866.899 Z-4.294
X863.844 Y866.888 Z-4.385
X863.813 Y866.87 Z-4.472
X863.77 Y866.846 Z-4.553
X863.717 Y866.815 Z-4.624
X863.655 Y866.78 Z-4.685
X863.585 Y866.74 Z-4.735
X863.51 Y866.697 Z-4.771
X863.43 Y866.651 Z-4.793
X863.349 Y866.605 Z-4.8
X862.828 Y866.307 F1440
G17 G3 X862.605 Y865.488 I0.298 J-0.521
G2 X863 Y864 I-2.605 J-1.488
G1 Y438
G2 X860 Y435 I-3
G1 X0
G2 X-3 Y438 J3
G1 Y864
G2 X0 Y867 I3
G1 X860
G2 X862.605 Y865.488 J-3
G3 X863.423 Y865.265 I0.521 J0.298
G1 X863.944 Y865.563
X864.026 Y865.609 Z-4.793
X864.105 Y865.655 Z-4.771
X864.181 Y865.698 Z-4.735
X864.25 Y865.738 Z-4.685
X864.313 Y865.773 Z-4.624
X864.366 Y865.804 Z-4.553
X864.408 Y865.828 Z-4.472
X864.44 Y865.846 Z-4.385
X864.459 Y865.857 Z-4.294
X864.465 Y865.861 Z-4.2
G0 Z9
X934.2 Y34.9
Z8
G1 Z5.8 F30
Z-4.2
G18 G2 X934.8 Z-4.8 I0.6
G1 X935.4 F1440
G17 G3 X936 Y35.5 J0.6
G1 Y857
X871
Y3
X936
Y35.5
G3 X935.4 Y36.1 I-0.6
G1 X934.8
G18 G3 X934.2 Z-4.2 K0.6
G0 Z9
Y34.9
Z8
G1 Z1 F30
Z-9
G2 X934.8 Z-9.6 I0.6
G1 X935.4 F1440
G17 G3 X936 Y35.5 J0.6
G1 Y857
X871
Y3
X936
Y35.5
G3 X935.4 Y36.1 I-0.6
G1 X934.8
G18 G3 X934.2 Z-9 K0.6
G0 Z9
Y34.9
Z8
G1 Z-3.8 F30
Z-13.8
G2 X934.8 Z-14.4 I0.6
G1 X935.4 F1440
G17 G3 X936 Y35.5 J0.6
G1 Y857
X871
Y3
X936
Y35.5
G3 X935.4 Y36.1 I-0.6
G1 X934.8
G18 G3 X934.2 Z-13.8 K0.6
G0 Z9
Y34.9
Z8
G1 Z-8.6 F30
Z-18.4
G2 X934.8 Z-19 I0.6
G1 X935.4 F1440
G17 G3 X936 Y35.5 J0.6
G1 Y857
X871
Y3
X936
Y35.5
G3 X935.4 Y36.1 I-0.6
G1 X934.8
G18 G3 X934.2 Z-18.4 K0.6
G0 Z9
X942.2 Y-0.6
Z8
G1 Z5.8 F30
Z-4.2
G2 X942.8 Z-4.8 I0.6
G1 X943.4 F1440
G17 G3 X944 Y0 J0.6
G1 Y860
G2 X947 Y863 I3
G1 X1022
G2 X1025 Y860 J-3
G1 Y0
G2 X1022 Y-3 I-3
G1 X947
G2 X944 Y0 J3
G3 X943.4 Y0.6 I-0.6
G1 X942.8
G18 G3 X942.2 Z-4.2 K0.6
G0 Z9
Y-0.6
Z8
G1 Z1 F30
Z-9
G2 X942.8 Z-9.6 I0.6
G1 X943.4 F1440
G17 G3 X944 Y0 J0.6
G1 Y860
G2 X947 Y863 I3
G1 X1022
G2 X1025 Y860 J-3
G1 Y0
G2 X1022 Y-3 I-3
G1 X947
G2 X944 Y0 J3
G3 X943.4 Y0.6 I-0.6
G1 X942.8
G18 G3 X942.2 Z-9 K0.6
G0 Z9
Y-0.6
Z8
G1 Z-3.8 F30
Z-13.8
G2 X942.8 Z-14.4 I0.6
G1 X943.4 F1440
G17 G3 X944 Y0 J0.6
G1 Y860
G2 X947 Y863 I3
G1 X1022
G2 X1025 Y860 J-3
G1 Y0
G2 X1022 Y-3 I-3
G1 X947
G2 X944 Y0 J3
G3 X943.4 Y0.6 I-0.6
G1 X942.8
G18 G3 X942.2 Z-13.8 K0.6
G0 Z9
Y-0.6
Z8
G1 Z-8.6 F30
Z-18.4
G2 X942.8 Z-19 I0.6
G1 X943.4 F1440
G17 G3 X944 Y0 J0.6
G1 Y860
G2 X947 Y863 I3
G1 X1022
G2 X1025 Y860 J-3
G1 Y0
G2 X1022 Y-3 I-3
G1 X947
G2 X944 Y0 J3
G3 X943.4 Y0.6 I-0.6
G1 X942.8
G18 G3 X942.2 Z-18.4 K0.6
G0 Z9
X862.4 Y434.2
Z8
G1 Z5.8 F30
Z-4.2
X862.396 Y434.194 Z-4.294
X862.382 Y434.177 Z-4.385
X862.361 Y434.148 Z-4.472
X862.331 Y434.108 Z-4.553
X862.295 Y434.059 Z-4.624
X862.252 Y434.002 Z-4.685
X862.203 Y433.938 Z-4.735
X862.151 Y433.868 Z-4.771
X862.096 Y433.795 Z-4.793
X862.04 Y433.72 Z-4.8
X861.68 Y433.24 F1440
G17 G3 X861.8 Y432.4 I0.48 J-0.36
G2 X863 Y430 I-1.8 J-2.4
G1 Y0
G2 X860 Y-3 I-3
G1 X0
G2 X-3 Y0 J3
G1 Y430
G2 X0 Y433 I3
G1 X860
G2 X861.8 Y432.4 J-3
G3 X862.64 Y432.52 I0.36 J0.48
G1 X863 Y433
X863.056 Y433.075 Z-4.793
X863.111 Y433.148 Z-4.771
X863.163 Y433.218 Z-4.735
X863.212 Y433.282 Z-4.685
X863.255 Y433.339 Z-4.624
X863.291 Y433.388 Z-4.553
X863.321 Y433.428 Z-4.472
X863.342 Y433.457 Z-4.385
X863.356 Y433.474 Z-4.294
X863.36 Y433.48 Z-4.2
G0 Z9
X862.4 Y434.2
Z8
G1 Z1 F30
Z-9
X862.396 Y434.194 Z-9.094
X862.382 Y434.177 Z-9.185
X862.361 Y434.148 Z-9.272
X862.331 Y434.108 Z-9.353
X862.295 Y434.059 Z-9.424
X862.252 Y434.002 Z-9.485
X862.203 Y433.938 Z-9.535
X862.151 Y433.868 Z-9.571
X862.096 Y433.795 Z-9.593
X862.04 Y433.72 Z-9.6
X861.68 Y433.24 F1440
G3 X861.8 Y432.4 I0.48 J-0.36
G2 X863 Y430 I-1.8 J-2.4
G1 Y0
G2 X860 Y-3 I-3
G1 X0
G2 X-3 Y0 J3
G1 Y430
G2 X0 Y433 I3
G1 X860
G2 X861.8 Y432.4 J-3
G3 X862.64 Y432.52 I0.36 J0.48
G1 X863 Y433
X863.056 Y433.075 Z-9.593
X863.111 Y433.148 Z-9.571
X863.163 Y433.218 Z-9.535
X863.212 Y433.282 Z-9.485
X863.255 Y433.339 Z-9.424
X863.291 Y433.388 Z-9.353
X863.321 Y433.428 Z-9.272
X863.342 Y433.457 Z-9.185
X863.356 Y433.474 Z-9.094
X863.36 Y433.48 Z-9
G0 Z9
Y434.52
Z8
G1 Z1 F30
Z-9
X863.356 Y434.526 Z-9.094
X863.342 Y434.543 Z-9.185
X863.321 Y434.572 Z-9.272
X863.291 Y434.612 Z-9.353
X863.255 Y434.661 Z-9.424
X863.212 Y434.718 Z-9.485
X863.163 Y434.782 Z-9.535
X863.111 Y434.852 Z-9.571
X863.056 Y434.925 Z-9.593
X863 Y435 Z-9.6
X862.64 Y435.48 F1440
G3 X861.8 Y435.6 I-0.48 J-0.36
G2 X860 Y435 I-1.8 J2.4
G1 X0
G2 X-3 Y438 J3
G1 Y864
G2 X0 Y867 I3
G1 X860
G2 X863 Y864 J-3
G1 Y438
G2 X861.8 Y435.6 I-3
G3 X861.68 Y434.76 I0.36 J-0.48
G1 X862.04 Y434.28
X862.096 Y434.205 Z-9.593
X862.151 Y434.132 Z-9.571
X862.203 Y434.062 Z-9.535
X862.252 Y433.998 Z-9.485
X862.295 Y433.941 Z-9.424
X862.331 Y433.892 Z-9.353
X862.361 Y433.852 Z-9.272
X862.382 Y433.823 Z-9.185
X862.396 Y433.806 Z-9.094
X862.4 Y433.8 Z-9
G0 Z9
Y434.2
Z8
G1 Z-3.8 F30
Z-13.8
X862.396 Y434.194 Z-13.894
X862.382 Y434.177 Z-13.985
X862.361 Y434.148 Z-14.072
X862.331 Y434.108 Z-14.153
X862.295 Y434.059 Z-14.224
X862.252 Y434.002 Z-14.285
X862.203 Y433.938 Z-14.335
X862.151 Y433.868 Z-14.371
X862.096 Y433.795 Z-14.393
X862.04 Y433.72 Z-14.4
X861.68 Y433.24 F1440
G3 X861.8 Y432.4 I0.48 J-0.36
G2 X863 Y430 I-1.8 J-2.4
G1 Y0
G2 X860 Y-3 I-3
G1 X0
G2 X-3 Y0 J3
G1 Y430
G2 X0 Y433 I3
G1 X860
G2 X861.8 Y432.4 J-3
G3 X862.64 Y432.52 I0.36 J0.48
G1 X863 Y433
X863.056 Y433.075 Z-14.393
X863.111 Y433.148 Z-14.371
X863.163 Y433.218 Z-14.335
X863.212 Y433.282 Z-14.285
X863.255 Y433.339 Z-14.224
X863.291 Y433.388 Z-14.153
X863.321 Y433.428 Z-14.072
X863.342 Y433.457 Z-13.985
X863.356 Y433.474 Z-13.894
X863.36 Y433.48 Z-13.8
G0 Z9
X864.8 Y1728.29
Z8
G1 Z5.8 F30
Z-4.2
G18 G3 X864.2 Z-4.8 I-0.6
G1 X863.6 F1440
G17 G3 X863 Y1727.69 J-0.6
G1 Y1305.85
G2 X860 Y1302.85 I-3
G1 X0
G2 X-3 Y1305.85 J3
G1 Y1727.69
G2 X0 Y1730.69 I3
G1 X444
X860
G2 X863 Y1727.69 J-3
G3 X863.6 Y1727.09 I0.6
G1 X864.2
G18 G2 X864.8 Z-4.2 K0.6
G0 Z9
X448.52 Y1732.33
Z8
G1 Z5.8 F30
Z-4.2
X448.526 Y1732.334 Z-4.294
X448.543 Y1732.348 Z-4.385
X448.572 Y1732.369 Z-4.472
X448.612 Y1732.399 Z-4.553
X448.661 Y1732.435 Z-4.624
X448.718 Y1732.478 Z-4.685
X448.782 Y1732.527 Z-4.735
X448.852 Y1732.579 Z-4.771
X448.925 Y1732.634 Z-4.793
X449 Y1732.69 Z-4.8
X449.48 Y1733.05 F1440
G17 G3 X449.6 Y1733.89 I-0.36 J0.48
G2 X449 Y1735.69 I2.4 J1.8
G1 Y2400
G2 X452 Y2403 I3
G1 X898
G2 X901 Y2400 J-3
G1 Y1735.69
G2 X898 Y1732.69 I-3
G1 X452
G2 X449.6 Y1733.89 J3
G3 X448.76 Y1734.01 I-0.48 J-0.36
G1 X448.28 Y1733.65
X448.205 Y1733.594 Z-4.793
X448.132 Y1733.539 Z-4.771
X448.062 Y1733.487 Z-4.735
X447.998 Y1733.438 Z-4.685
X447.941 Y1733.395 Z-4.624
X447.892 Y1733.359 Z-4.553
X447.852 Y1733.329 Z-4.472
X447.823 Y1733.308 Z-4.385
X447.806 Y1733.294 Z-4.294
X447.8 Y1733.29 Z-4.2
G0 Z9
X448.2
Z8
G1 Z5.8 F30
Z-4.2
X448.194 Y1733.294 Z-4.294
X448.177 Y1733.308 Z-4.385
X448.148 Y1733.329 Z-4.472
X448.108 Y1733.359 Z-4.553
X448.059 Y1733.395 Z-4.624
X448.002 Y1733.438 Z-4.685
X447.938 Y1733.487 Z-4.735
X447.868 Y1733.539 Z-4.771
X447.795 Y1733.594 Z-4.793
X447.72 Y1733.65 Z-4.8
X447.24 Y1734.01 F1440
G3 X446.4 Y1733.89 I-0.36 J-0.48
G2 X444 Y1732.69 I-2.4 J1.8
G1 X0
G2 X-3 Y1735.69 J3
G1 Y2400
G2 X0 Y2403 I3
G1 X444
G2 X447 Y2400 J-3
G1 Y1735.69
G2 X446.4 Y1733.89 I-3
G3 X446.52 Y1733.05 I0.48 J-0.36
G1 X447 Y1732.69
X447.075 Y1732.634 Z-4.793
X447.148 Y1732.579 Z-4.771
X447.218 Y1732.527 Z-4.735
X447.282 Y1732.478 Z-4.685
X447.339 Y1732.435 Z-4.624
X447.388 Y1732.399 Z-4.553
X447.428 Y1732.369 Z-4.472
X447.457 Y1732.348 Z-4.385
X447.474 Y1732.334 Z-4.294
X447.48 Y1732.33 Z-4.2
G0 Z9
X447.4 Y1732.49
Z8
G1 Z1 F30
Z-9
G19 G2 Y1731.89 Z-9.6 J-0.6
G1 Y1731.29 F1440
G17 G3 X448 Y1730.69 I0.6
G1 X860
G2 X863 Y1727.69 J-3
G1 Y1305.85
G2 X860 Y1302.85 I-3
G1 X0
G2 X-3 Y1305.85 J3
G1 Y1727.69
G2 X0 Y1730.69 I3
G1 X444
X448
G3 X448.6 Y1731.29 J0.6
G1 Y1731.89
G19 G3 Y1732.49 Z-9 K0.6
G0 Z9
X448.52 Y1732.33
Z8
G1 Z1 F30
Z-9
X448.526 Y1732.334 Z-9.094
X448.543 Y1732.348 Z-9.185
X448.572 Y1732.369 Z-9.272
X448.612 Y1732.399 Z-9.353
X448.661 Y1732.435 Z-9.424
X448.718 Y1732.478 Z-9.485
X448.782 Y1732.527 Z-9.535
X448.852 Y1732.579 Z-9.571
X448.925 Y1732.634 Z-9.593
X449 Y1732.69 Z-9.6
X449.48 Y1733.05 F1440
G17 G3 X449.6 Y1733.89 I-0.36 J0.48
G2 X449 Y1735.69 I2.4 J1.8
G1 Y2400
G2 X452 Y2403 I3
G1 X898
G2 X901 Y2400 J-3
G1 Y1735.69
G2 X898 Y1732.69 I-3
G1 X452
G2 X449.6 Y1733.89 J3
G3 X448.76 Y1734.01 I-0.48 J-0.36
G1 X448.28 Y1733.65
X448.205 Y1733.594 Z-9.593
X448.132 Y1733.539 Z-9.571
X448.062 Y1733.487 Z-9.535
X447.998 Y1733.438 Z-9.485
X447.941 Y1733.395 Z-9.424
X447.892 Y1733.359 Z-9.353
X447.852 Y1733.329 Z-9.272
X447.823 Y1733.308 Z-9.185
X447.806 Y1733.294 Z-9.094
X447.8 Y1733.29 Z-9
G0 Z9
X448.2
Z8
G1 Z1 F30
Z-9
X448.194 Y1733.294 Z-9.094
X448.177 Y1733.308 Z-9.185
X448.148 Y1733.329 Z-9.272
X448.108 Y1733.359 Z-9.353
X448.059 Y1733.395 Z-9.424
X448.002 Y1733.438 Z-9.485
X447.938 Y1733.487 Z-9.535
X447.868 Y1733.539 Z-9.571
X447.795 Y1733.594 Z-9.593
X447.72 Y1733.65 Z-9.6
X447.24 Y1734.01 F1440
G3 X446.4 Y1733.89 I-0.36 J-0.48
G2 X444 Y1732.69 I-2.4 J1.8
G1 X0
G2 X-3 Y1735.69 J3
G1 Y2400
G2 X0 Y2403 I3
G1 X444
G2 X447 Y2400 J-3
G1 Y1735.69
G2 X446.4 Y1733.89 I-3
G3 X446.52 Y1733.05 I0.48 J-0.36
G1 X447 Y1732.69
X447.075 Y1732.634 Z-9.593
X447.148 Y1732.579 Z-9.571
X447.218 Y1732.527 Z-9.535
X447.282 Y1732.478 Z-9.485
X447.339 Y1732.435 Z-9.424
X447.388 Y1732.399 Z-9.353
X447.428 Y1732.369 Z-9.272
X447.457 Y1732.348 Z-9.185
X447.474 Y1732.334 Z-9.094
X447.48 Y1732.33 Z-9
G0 Z9
X448.2 Y1733.29
Z8
G1 Z-3.8 F30
Z-13.8
X448.194 Y1733.294 Z-13.894
X448.177 Y1733.308 Z-13.985
X448.148 Y1733.329 Z-14.072
X448.108 Y1733.359 Z-14.153
X448.059 Y1733.395 Z-14.224
X448.002 Y1733.438 Z-14.285
X447.938 Y1733.487 Z-14.335
X447.868 Y1733.539 Z-14.371
X447.795 Y1733.594 Z-14.393
X447.72 Y1733.65 Z-14.4
X447.24 Y1734.01 F1440
G3 X446.4 Y1733.89 I-0.36 J-0.48
G2 X444 Y1732.69 I-2.4 J1.8
G1 X0
G2 X-3 Y1735.69 J3
G1 Y2400
G2 X0 Y2403 I3
G1 X444
G2 X447 Y2400 J-3
G1 Y1735.69
G2 X446.4 Y1733.89 I-3
G3 X446.52 Y1733.05 I0.48 J-0.36
G1 X447 Y1732.69
X447.075 Y1732.634 Z-14.393
X447.148 Y1732.579 Z-14.371
X447.218 Y1732.527 Z-14.335
X447.282 Y1732.478 Z-14.285
X447.339 Y1732.435 Z-14.224
X447.388 Y1732.399 Z-14.153
X447.428 Y1732.369 Z-14.072
X447.457 Y1732.348 Z-13.985
X447.474 Y1732.334 Z-13.894
X447.48 Y1732.33 Z-13.8
G0 Z9
X448.52
Z8
G1 Z-3.8 F30
Z-13.8
X448.526 Y1732.334 Z-13.894
X448.543 Y1732.348 Z-13.985
X448.572 Y1732.369 Z-14.072
X448.612 Y1732.399 Z-14.153
X448.661 Y1732.435 Z-14.224
X448.718 Y1732.478 Z-14.285
X448.782 Y1732.527 Z-14.335
X448.852 Y1732.579 Z-14.371
X448.925 Y1732.634 Z-14.393
X449 Y1732.69 Z-14.4
X449.48 Y1733.05 F1440
G3 X449.6 Y1733.89 I-0.36 J0.48
G2 X449 Y1735.69 I2.4 J1.8
G1 Y2400
G2 X452 Y2403 I3
G1 X898
G2 X901 Y2400 J-3
G1 Y1735.69
G2 X898 Y1732.69 I-3
G1 X452
G2 X449.6 Y1733.89 J3
G3 X448.76 Y1734.01 I-0.48 J-0.36
G1 X448.28 Y1733.65
X448.205 Y1733.594 Z-14.393
X448.132 Y1733.539 Z-14.371
X448.062 Y1733.487 Z-14.335
X447.998 Y1733.438 Z-14.285
X447.941 Y1733.395 Z-14.224
X447.892 Y1733.359 Z-14.153
X447.852 Y1733.329 Z-14.072
X447.823 Y1733.308 Z-13.985
X447.806 Y1733.294 Z-13.894
X447.8 Y1733.29 Z-13.8
G0 Z9
X860.6 Y867.2
Z8
G1 Z1 F30
Z-9
G19 G3 Y867.8 Z-9.6 J0.6
G1 Y868.4 F1440
G17 G3 X860 Y869 I-0.6
G1 X0
G2 X-3 Y872 J3
G1 Y1297.85
G2 X0 Y1300.85 I3
G1 X860
G2 X863 Y1297.85 J-3
G1 Y872
G2 X860 Y869 I-3
G3 X859.4 Y868.4 J-0.6
G1 Y867.8
G19 G2 Y867.2 Z-9 K0.6
G0 Z9
X863.87 Y866.902
Z8
G1 Z-3.8 F30
Z-13.8
X863.863 Y866.899 Z-13.894
X863.844 Y866.888 Z-13.985
X863.813 Y866.87 Z-14.072
X863.77 Y866.846 Z-14.153
X863.717 Y866.815 Z-14.224
X863.655 Y866.78 Z-14.285
X863.585 Y866.74 Z-14.335
X863.51 Y866.697 Z-14.371
X863.43 Y866.651 Z-14.393
X863.349 Y866.605 Z-14.4
X862.828 Y866.307 F1440
G17 G3 X862.605 Y865.488 I0.298 J-0.521
G2 X863 Y864 I-2.605 J-1.488
G1 Y438
G2 X860 Y435 I-3
G1 X0
G2 X-3 Y438 J3
G1 Y864
G2 X0 Y867 I3
G1 X860
G2 X862.605 Y865.488 J-3
G3 X863.423 Y865.265 I0.521 J0.298
G1 X863.944 Y865.563
X864.026 Y865.609 Z-14.393
X864.105 Y865.655 Z-14.371
X864.181 Y865.698 Z-14.335
X864.25 Y865.738 Z-14.285
X864.313 Y865.773 Z-14.224
X864.366 Y865.804 Z-14.153
X864.408 Y865.828 Z-14.072
X864.44 Y865.846 Z-13.985
X864.459 Y865.857 Z-13.894
X864.465 Y865.861 Z-13.8
G0 Z9
X860.6 Y867.2
Z8
G1 Z-3.8 F30
Z-13.8
G19 G3 Y867.8 Z-14.4 J0.6
G1 Y868.4 F1440
G17 G3 X860 Y869 I-0.6
G1 X0
G2 X-3 Y872 J3
G1 Y1297.85
G2 X0 Y1300.85 I3
G1 X860
G2 X863 Y1297.85 J-3
G1 Y872
G2 X860 Y869 I-3
G3 X859.4 Y868.4 J-0.6
G1 Y867.8
G19 G2 Y867.2 Z-13.8 K0.6
G0 Z9
X863.87 Y866.902
Z8
G1 Z-8.6 F30
Z-18.4
X863.863 Y866.899 Z-18.494
X863.844 Y866.888 Z-18.585
X863.813 Y866.87 Z-18.672
X863.77 Y866.846 Z-18.753
X863.717 Y866.815 Z-18.824
X863.655 Y866.78 Z-18.885
X863.585 Y866.74 Z-18.935
X863.51 Y866.697 Z-18.971
X863.43 Y866.651 Z-18.993
X863.349 Y866.605 Z-19
X862.828 Y866.307 F1440
G17 G3 X862.605 Y865.488 I0.298 J-0.521
G2 X863 Y864 I-2.605 J-1.488
G1 Y438
G2 X860 Y435 I-3
G1 X0
G2 X-3 Y438 J3
G1 Y864
G2 X0 Y867 I3
G1 X860
G2 X862.605 Y865.488 J-3
G3 X863.423 Y865.265 I0.521 J0.298
G1 X863.944 Y865.563
X864.026 Y865.609 Z-18.993
X864.105 Y865.655 Z-18.971
X864.181 Y865.698 Z-18.935
X864.25 Y865.738 Z-18.885
X864.313 Y865.773 Z-18.824
X864.366 Y865.804 Z-18.753
X864.408 Y865.828 Z-18.672
X864.44 Y865.846 Z-18.585
X864.459 Y865.857 Z-18.494
X864.465 Y865.861 Z-18.4
G0 Z9
X862.4 Y434.2
Z8
G1 Z-8.6 F30
Z-18.4
X862.396 Y434.194 Z-18.494
X862.382 Y434.177 Z-18.585
X862.361 Y434.148 Z-18.672
X862.331 Y434.108 Z-18.753
X862.295 Y434.059 Z-18.824
X862.252 Y434.002 Z-18.885
X862.203 Y433.938 Z-18.935
X862.151 Y433.868 Z-18.971
X862.096 Y433.795 Z-18.993
X862.04 Y433.72 Z-19
X861.68 Y433.24 F1440
G3 X861.8 Y432.4 I0.48 J-0.36
G2 X863 Y430 I-1.8 J-2.4
G1 Y0
G2 X860 Y-3 I-3
G1 X0
G2 X-3 Y0 J3
G1 Y430
G2 X0 Y433 I3
G1 X860
G2 X861.8 Y432.4 J-3
G3 X862.64 Y432.52 I0.36 J0.48
G1 X863 Y433
X863.056 Y433.075 Z-18.993
X863.111 Y433.148 Z-18.971
X863.163 Y433.218 Z-18.935
X863.212 Y433.282 Z-18.885
X863.255 Y433.339 Z-18.824
X863.291 Y433.388 Z-18.753
X863.321 Y433.428 Z-18.672
X863.342 Y433.457 Z-18.585
X863.356 Y433.474 Z-18.494
X863.36 Y433.48 Z-18.4
G0 Z9
X864.8 Y1728.29
Z8
G1 Z-3.8 F30
Z-13.8
G18 G3 X864.2 Z-14.4 I-0.6
G1 X863.6 F1440
G17 G3 X863 Y1727.69 J-0.6
G1 Y1305.85
G2 X860 Y1302.85 I-3
G1 X0
G2 X-3 Y1305.85 J3
G1 Y1727.69
G2 X0 Y1730.69 I3
G1 X444
X860
G2 X863 Y1727.69 J-3
G3 X863.6 Y1727.09 I0.6
G1 X864.2
G18 G2 X864.8 Z-13.8 K0.6
G0 Z9
Y1728.29
Z8
G1 Z-8.6 F30
Z-18.4
G3 X864.2 Z-19 I-0.6
G1 X863.6 F1440
G17 G3 X863 Y1727.69 J-0.6
G1 Y1305.85
G2 X860 Y1302.85 I-3
G1 X0
G2 X-3 Y1305.85 J3
G1 Y1727.69
G2 X0 Y1730.69 I3
G1 X444
X860
G2 X863 Y1727.69 J-3
G3 X863.6 Y1727.09 I0.6
G1 X864.2
G18 G2 X864.8 Z-18.4 K0.6
G0 Z9
X448.52 Y1732.33
Z8
G1 Z-8.6 F30
Z-18.4
X448.526 Y1732.334 Z-18.494
X448.543 Y1732.348 Z-18.585
X448.572 Y1732.369 Z-18.672
X448.612 Y1732.399 Z-18.753
X448.661 Y1732.435 Z-18.824
X448.718 Y1732.478 Z-18.885
X448.782 Y1732.527 Z-18.935
X448.852 Y1732.579 Z-18.971
X448.925 Y1732.634 Z-18.993
X449 Y1732.69 Z-19
X449.48 Y1733.05 F1440
G17 G3 X449.6 Y1733.89 I-0.36 J0.48
G2 X449 Y1735.69 I2.4 J1.8
G1 Y2400
G2 X452 Y2403 I3
G1 X898
G2 X901 Y2400 J-3
G1 Y1735.69
G2 X898 Y1732.69 I-3
G1 X452
G2 X449.6 Y1733.89 J3
G3 X448.76 Y1734.01 I-0.48 J-0.36
G1 X448.28 Y1733.65
X448.205 Y1733.594 Z-18.993
X448.132 Y1733.539 Z-18.971
X448.062 Y1733.487 Z-18.935
X447.998 Y1733.438 Z-18.885
X447.941 Y1733.395 Z-18.824
X447.892 Y1733.359 Z-18.753
X447.852 Y1733.329 Z-18.672
X447.823 Y1733.308 Z-18.585
X447.806 Y1733.294 Z-18.494
X447.8 Y1733.29 Z-18.4
G0 Z9
X448.2
Z8
G1 Z-8.6 F30
Z-18.4
X448.194 Y1733.294 Z-18.494
X448.177 Y1733.308 Z-18.585
X448.148 Y1733.329 Z-18.672
X448.108 Y1733.359 Z-18.753
X448.059 Y1733.395 Z-18.824
X448.002 Y1733.438 Z-18.885
X447.938 Y1733.487 Z-18.935
X447.868 Y1733.539 Z-18.971
X447.795 Y1733.594 Z-18.993
X447.72 Y1733.65 Z-19
X447.24 Y1734.01 F1440
G3 X446.4 Y1733.89 I-0.36 J-0.48
G2 X444 Y1732.69 I-2.4 J1.8
G1 X0
G2 X-3 Y1735.69 J3
G1 Y2400
G2 X0 Y2403 I3
G1 X444
G2 X447 Y2400 J-3
G1 Y1735.69
G2 X446.4 Y1733.89 I-3
G3 X446.52 Y1733.05 I0.48 J-0.36
G1 X447 Y1732.69
X447.075 Y1732.634 Z-18.993
X447.148 Y1732.579 Z-18.971
X447.218 Y1732.527 Z-18.935
X447.282 Y1732.478 Z-18.885
X447.339 Y1732.435 Z-18.824
X447.388 Y1732.399 Z-18.753
X447.428 Y1732.369 Z-18.672
X447.457 Y1732.348 Z-18.585
X447.474 Y1732.334 Z-18.494
X447.48 Y1732.33 Z-18.4
G0 Z9
X860.6 Y867.2
Z8
G1 Z-8.6 F30
Z-18.4
G19 G3 Y867.8 Z-19 J0.6
G1 Y868.4 F1440
G17 G3 X860 Y869 I-0.6
G1 X0
G2 X-3 Y872 J3
G1 Y1297.85
G2 X0 Y1300.85 I3
G1 X860
G2 X863 Y1297.85 J-3
G1 Y872
G2 X860 Y869 I-3
G3 X859.4 Y868.4 J-0.6
G1 Y867.8
G19 G2 Y867.2 Z-18.4 K0.6
G0 Z22
G17
M9
G28 G91 Z0
G28 X0 Y0
M30
%